src/assets/progress.svg

<svg xmlns="http://www.w3.org/2000/svg" height="24" viewBox="0 0 24 24" width="24"><path d="M12 6v3l4-4-4-4v3c-4.42 0-8 3.58-8 8 0 1.57.46 3.03 1.24 4.26L6.7 14.8c-.45-.83-.7-1.79-.7-2.8 0-3.31 2.69-6 6-6zm6.76 1.74L17.3 9.2c.44.84.7 1.79.7 2.8 0 3.31-2.69 6-6 6v-3l-4 4 4 4v-3c4.42 0 8-3.58 8-8 0-1.57-.46-3.03-1.24-4.26z"/><path d="M0 0h24v24H0z" fill="none"/></svg>

<?xml version="1.0" encoding="UTF-8"?>
<svg width="16px" height="22px" viewBox="0 0 16 22" version="1.1" xmlns="http://www.w3.org/2000/svg" xmlns:xlink="http://www.w3.org/1999/xlink">
    <!-- Generator: Sketch 60 (88103) - https://sketch.com -->
    <title>autorenew-24px-yellow</title>
    <desc>Created with Sketch.</desc>
    <g id="Page-1" stroke="none" stroke-width="1" fill="none" fill-rule="evenodd">
        <g id="autorenew-24px-yellow" transform="translate(-4.000000, -1.000000)">
            <polygon id="Path" points="0 0 24 0 24 24 0 24"></polygon>
            <path d="M12,6 L12,9 L16,5 L12,1 L12,4 C7.58,4 4,7.58 4,12 C4,13.57 4.46,15.03 5.24,16.26 L6.7,14.8 C6.25,13.97 6,13.01 6,12 C6,8.69 8.69,6 12,6 Z M18.76,7.74 L17.3,9.2 C17.74,10.04 18,10.99 18,12 C18,15.31 15.31,18 12,18 L12,15 L8,19 L12,23 L12,20 C16.42,20 20,16.42 20,12 C20,10.43 19.54,8.97 18.76,7.74 L18.76,7.74 Z" id="Shape" fill="#FFB239" fill-rule="nonzero"></path>
        </g>
    </g>
</svg>
